X:288
T: Mit Gott
N: A0639
O: Europa, Mitteleuropa, Deutschland
N: Dresdner Gsgb 1593
R: Romanze, Ballade, Lied, religioeses Lied
M: 4/2
L: 1/4
K: F
F4 | F2F2A2A2 | B2c2c4 | z2
c2c2c2 | c2c2G2A2 | G4z2
c2 | c4B2A4G2 | F2EDE4 | C8 | z4
C4 | F2F2A2A2 | B2c2c4 | z2
A2B2c2 | c2AGF2F2 | DEFGA4
F4A2B2 | c3AB2A2G4 | F4

